build/img/icon-ok.svg

<svg width="28" height="26" viewBox="0 0 28 26" fill="none" xmlns="http://www.w3.org/2000/svg">
<path d="M14.1854 10.957C15.2011 10.957 15.991 10.1213 15.9722 9.2113C15.991 8.3013 15.2199 7.44702 14.2042 7.44702C13.2262 7.44702 12.4175 8.22702 12.4175 9.19273C12.4175 10.1584 13.2074 10.957 14.1854 10.957Z" fill="#CDCDCD"/>
<path d="M14.0353 0C6.77535 0 0.869629 5.8314 0.869629 12.9999C0.869629 20.187 6.77535 25.9999 14.0353 25.9999C21.314 25.9999 27.2009 20.1685 27.2009 12.9999C27.2197 5.8314 21.314 0 14.0353 0ZM14.2233 4.9214C16.5932 4.9214 18.5492 6.85282 18.5304 9.21138C18.5304 11.5885 16.5555 13.5014 14.1481 13.4642C11.7783 13.4271 9.87868 11.5142 9.87868 9.19281C9.87868 6.83425 11.8159 4.9214 14.2233 4.9214ZM19.057 14.9499C19.057 14.9871 19.0382 15.0056 19.0382 15.0428C18.9818 15.4142 18.7937 15.7114 18.474 15.9156C18.2671 16.0456 18.0414 16.1756 17.8157 16.2871C17.2514 16.5656 16.6496 16.7885 16.0289 16.9371C15.9537 16.9556 15.9537 16.9556 16.0101 17.0113C16.3486 17.3456 16.706 17.6985 17.0445 18.0328C17.4771 18.4599 17.9285 18.9056 18.3611 19.3328C18.9818 19.9456 18.8125 20.967 18.0226 21.3385C17.8909 21.4128 17.7404 21.4313 17.59 21.4685C17.5147 21.4685 17.4207 21.4685 17.3455 21.4685C17.3267 21.4685 17.3079 21.4685 17.3079 21.4499C17.0069 21.4128 16.7624 21.2642 16.5367 21.0599C15.7844 20.317 15.0133 19.5556 14.261 18.8128C14.2045 18.7571 14.2045 18.7571 14.1481 18.8128C13.377 19.5742 12.6247 20.317 11.8535 21.0785C11.7219 21.2085 11.5902 21.3013 11.4209 21.3756C11.3081 21.4313 11.1764 21.4499 11.0636 21.4685C10.9884 21.4685 10.9131 21.4685 10.8191 21.4685C10.7815 21.4685 10.7627 21.4499 10.725 21.4499C10.2172 21.357 9.87868 21.0785 9.72822 20.5956C9.57775 20.1128 9.6906 19.6856 10.048 19.3328C10.3677 19.017 10.6686 18.7199 10.9884 18.4042C11.4586 17.9399 11.9288 17.4756 12.3802 17.0299C12.4366 16.9742 12.4366 16.9742 12.3613 16.9556C12.3425 16.9556 12.3049 16.9371 12.2861 16.9371C11.4397 16.7328 10.6686 16.3985 9.93511 15.9528C9.50252 15.6742 9.29563 15.2656 9.35206 14.7642C9.4461 13.8356 10.4993 13.3342 11.2893 13.8356C11.4397 13.9285 11.5714 14.0028 11.7407 14.0771C12.6058 14.5042 13.5274 14.6899 14.4867 14.6342C14.9569 14.6156 15.4271 14.5228 15.8973 14.3742C16.3486 14.2256 16.7436 14.0214 17.1574 13.7985C17.8345 13.4085 18.7185 13.7242 18.9818 14.4485C19.0194 14.5599 19.0382 14.6528 19.057 14.7642C19.057 14.8199 19.057 14.8756 19.057 14.9499Z"/>
</svg>

<svg width="28" height="26" fill="none" xmlns="http://www.w3.org/2000/svg"><path d="M14.185 10.957c1.016 0 1.806-.836 1.787-1.746.019-.91-.752-1.764-1.768-1.764-.978 0-1.787.78-1.787 1.746 0 .965.79 1.764 1.768 1.764z" fill="#CDCDCD"/><path d="M14.035 0C6.775 0 .87 5.831.87 13c0 7.187 5.905 13 13.165 13 7.279 0 13.166-5.831 13.166-13 .019-7.17-5.887-13-13.166-13zm.188 4.921c2.37 0 4.326 1.932 4.307 4.29 0 2.377-1.975 4.29-4.382 4.253-2.37-.037-4.27-1.95-4.27-4.271 0-2.359 1.938-4.272 4.345-4.272zm4.834 10.029c0 .037-.019.056-.019.093a1.213 1.213 0 01-.564.873c-.207.13-.433.26-.658.371a8.551 8.551 0 01-1.787.65c-.075.019-.075.019-.019.074l1.034 1.022 1.317 1.3c.62.613.451 1.634-.338 2.006-.132.074-.283.092-.433.13h-.244c-.02 0-.038 0-.038-.02-.301-.036-.546-.185-.771-.39l-2.276-2.246c-.056-.056-.056-.056-.113 0l-2.294 2.265c-.132.13-.264.223-.433.298-.113.055-.245.074-.357.092h-.245c-.038 0-.056-.018-.094-.018-.508-.093-.846-.372-.997-.854-.15-.483-.037-.91.32-1.263l.94-.929 1.392-1.374c.057-.056.057-.056-.019-.074-.019 0-.056-.019-.075-.019a8.182 8.182 0 01-2.35-.984c-.433-.279-.64-.687-.584-1.189.094-.928 1.147-1.43 1.937-.928.15.092.282.167.452.241a5.412 5.412 0 002.746.557c.47-.018.94-.111 1.41-.26.452-.148.847-.353 1.26-.575.677-.39 1.561-.075 1.825.65.037.11.056.204.075.315v.186z"/></svg>
